X: 10711
Q: "Andantino"
M: 6/8
L: 1/8
K: G
d |\
d2d (dg)d | e2e (eg)e | (dB)d (cBA) | B2 z2B |\
|: d |\
(d>e)d =fed | (c>d)c edc | Bcd He2G | (G3 HF2)d |\
d2d dgd | e2e ege | dBd cBA | g6- |\
g2g (d/c/B) A | G2z z2 :|


